X: 6
T: Sweeney's Buttermilk
R: reel
M: 4/4
L: 1/8
K: Bmin
|:"Bm"F~B3 F~B3|"D"dcBc "A"A~E3|"Bm"F~B3 ABce|"A"afec Baga|
"D"f2 ec fecf|"A"ecBc BAFE|"Bm"F~B3 ABce|1 "A"afec "Bm"B4:|2 "A"faec "Bm"B2 BA:|
|:"Bm"FBdc B~F3|"A"EAcB A~E3|"Bm"FBdc (3Bcd fb|"G"afec "A"dBcA|
"D"Bcde f~B2g|"A"afec ABce|"Bm"fe (3fga "G"bafb|"A"afec "Bm"B2 BA:|

